packages/heroicons/src/prism/grid-small.svg

<!-- Generated by IcoMoon.io -->
<svg version="1.1" xmlns="http://www.w3.org/2000/svg" width="16" height="16" viewBox="0 0 16 16">
<title>grid-small</title>
<path fill="#4a4a4a" d="M0 0h4v4h-4zM6 0h4v4h-4zM12 0h4v4h-4zM0 6h4v4h-4zM6 6h4v4h-4zM12 6h4v4h-4zM0 12h4v4h-4zM6 12h4v4h-4zM12 12h4v4h-4z"></path>
</svg>

<svg xmlns="http://www.w3.org/2000/svg" aria-hidden="true" fill="currentColor" viewBox="0 0 16 16">
  <path d="M0 0h4v4H0zm6 0h4v4H6zm6 0h4v4h-4zM0 6h4v4H0zm6 0h4v4H6zm6 0h4v4h-4zM0 12h4v4H0zm6 0h4v4H6zm6 0h4v4h-4z"/>
</svg>
